public/images/icon-arrow-down--leaf.svg

<svg width="26" height="33" viewBox="0 0 26 33" fill="none" xmlns="http://www.w3.org/2000/svg">
<path d="M11.4375 31.4375H11.375L1.375 21.4375L0 20L2.8125 17.1875C2.875 17.25 5.5625 19.9375 10.8125 25.1875V0H14.8125V25.1875C20.0625 19.9375 22.75 17.25 22.8125 17.1875L25.625 20L24.25 21.4375L14.25 31.4375L12.8125 32.8125L11.4375 31.4375Z" fill="#91C15D"/>
</svg>

<svg width="26" height="33" viewBox="0 0 26 33" fill="none" xmlns="http://www.w3.org/2000/svg"><path d="M11.438 31.438h-.063l-10-10L0 20l2.813-2.813 8 8V0h4v25.188l8-8L25.625 20l-1.375 1.438-10 10-1.438 1.375-1.374-1.376Z" fill="#91C15D"/></svg>
